assets/icons/icon_contact_ldpi.svg

<svg width="24" height="24" viewBox="0 0 24 24" fill="none"
    xmlns="http://www.w3.org/2000/svg">
    <path d="M20 10.999H22C22 5.869 18.127 2 12.99 2V4C17.052 4 20 6.943 20 10.999Z" fill="#4F46E5"/>
    <path d="M13 7.99999C15.103 7.99999 16 8.89699 16 11H18C18 7.77499 16.225 5.99999 13 5.99999V7.99999ZM16.422 13.443C16.2299 13.2683 15.9774 13.1752 15.7178 13.1832C15.4583 13.1912 15.212 13.2998 15.031 13.486L12.638 15.947C12.062 15.837 10.904 15.476 9.71204 14.287C8.52004 13.094 8.15904 11.933 8.05204 11.361L10.511 8.96699C10.6975 8.78612 10.8062 8.53982 10.8142 8.2802C10.8222 8.02059 10.7289 7.76804 10.554 7.57599L6.85904 3.51299C6.68408 3.32035 6.44092 3.2035 6.18119 3.18725C5.92146 3.17101 5.66564 3.25665 5.46804 3.42599L3.29804 5.28699C3.12515 5.46051 3.02196 5.69145 3.00804 5.93599C2.99304 6.18599 2.70704 12.108 7.29904 16.702C11.305 20.707 16.323 21 17.705 21C17.907 21 18.031 20.994 18.064 20.992C18.3086 20.9783 18.5394 20.8747 18.712 20.701L20.572 18.53C20.7415 18.3325 20.8273 18.0768 20.8113 17.817C20.7952 17.5573 20.6785 17.3141 20.486 17.139L16.422 13.443Z" fill="#4F46E5"/>
</svg>

<svg fill="none" xmlns="http://www.w3.org/2000/svg" viewBox="0 0 24 24"><path d="M20 11h2c0-5.13-3.87-9-9.01-9v2A6.77 6.77 0 0 1 20 11" fill="#4F46E5"/><path d="M13 8c2.1 0 3 .9 3 3h2c0-3.23-1.77-5-5-5zm3.42 5.44a1 1 0 0 0-1.39.05l-2.4 2.46a5.7 5.7 0 0 1-2.92-1.66 5.7 5.7 0 0 1-1.66-2.93l2.46-2.4a1 1 0 0 0 .04-1.38L6.85 3.5a1 1 0 0 0-1.38-.08L3.3 5.29a1 1 0 0 0-.3.65c0 .25-.3 6.17 4.3 10.76A15 15 0 0 0 18.06 21a1 1 0 0 0 .65-.3l1.86-2.17a1 1 0 0 0-.08-1.4z" fill="#4F46E5"/></svg>
